X:21
T:La Bergerie en Danger
R:Branle
A:Normandie
O:France
M:2/4
L:1/8
Q:1/4=84
K:Bb
G/2 GG|BB cc| d>","G  GG|BB cc| d","z/2 d/2 dd| ed ce|dd "," ce |!
dd ce|dd/2","d/2  ce|de/2d/2 ce|d2"^,"  dd|d2 c/2B/2A/2B/2|c2 BB|!
BA Bc|AD ","BB|BB B/2-A/2B/2c/2|AD DD|B>G AB|c>B cd|B2 A2|!
G4-|G>G AB|G4-|G>G AB|"^"G4-|Gz||
